src/resources/flags/sc.svg

<svg height="336" viewBox="0 0 512 336" width="512" xmlns="http://www.w3.org/2000/svg"><g fill="none"><path d="m8.828 335.724h494.345a8.829 8.829 0 0 0 8.828-8.828v-102.989l-507.151 110.757c1.209.624 2.523 1.06 3.978 1.06z" fill="#73af00"/><path d="m170.667.276h-161.839a8.829 8.829 0 0 0 -8.828 8.828v317.792c0 1.972.769 3.699 1.862 5.169z" fill="#41479b"/><path d="m2.613 333.157 338.72-332.881h-170.666l-168.805 331.789c.264.356.436.78.751 1.092z" fill="#ffe15a"/><path d="m503.172.276h-161.839l-338.72 332.881c.367.364.858.569 1.284.865l508.103-221.93v-102.988a8.829 8.829 0 0 0 -8.828-8.828z" fill="#ff4b55"/><path d="m4.85 334.664 507.149-110.757v-111.815l-508.103 221.93c.317.22.609.466.954.642z" fill="#f5f5f5"/></g></svg>

<svg width="512" height="336" viewBox="0 0 512 336" xmlns="http://www.w3.org/2000/svg">
  <g fill="none">
    <path d="M8.828 335.724h494.345a8.829 8.829 0 0 0 8.828-8.828V223.907L4.85 334.664c1.209.624 2.523 1.06 3.978 1.06z" fill="#73AF00"/>
    <path d="M170.667.276H8.828A8.829 8.829 0 0 0 0 9.104v317.792c0 1.972.769 3.699 1.862 5.169L170.667.276z" fill="#41479B"/>
    <path d="M2.613 333.157L341.333.276H170.667L1.862 332.065c.264.356.436.78.751 1.092z" fill="#FFE15A"/>
    <path d="M503.172.276H341.333L2.613 333.157c.367.364.858.569 1.284.865L512 112.092V9.104a8.829 8.829 0 0 0-8.828-8.828z" fill="#FF4B55"/>
    <path d="M4.85 334.664l507.149-110.757V112.092L3.896 334.022c.317.22.609.466.954.642z" fill="#F5F5F5"/>
  </g>
</svg>
